img/benefits/Group 37.svg

<svg width="92" height="63" viewBox="0 0 92 63" fill="none" xmlns="http://www.w3.org/2000/svg">
<rect x="0.2" y="0.2" width="91.6" height="62.6" rx="27.8" fill="#F9FBFF" stroke="#0037FC" stroke-width="0.4"/>
<path d="M38 37.9349C38 36.7145 38.1041 35.6111 38.3122 34.6246C38.5204 33.6381 38.8559 32.683 39.319 31.7592C39.782 30.8354 40.396 29.8653 41.161 28.849C42.0068 27.7408 42.9204 26.5682 43.9019 25.3311C44.8834 24.094 45.8651 22.7683 46.847 21.3541C47.8289 19.9399 48.7375 18.4257 49.5726 16.8114C49.9285 16.1196 50.2524 15.6448 50.5442 15.3869C50.836 15.129 51.1915 15 51.6107 15C52.1956 15 52.6572 15.181 52.9954 15.5429C53.3336 15.9048 53.5028 16.3884 53.5028 16.9936C53.5028 17.689 53.3605 18.4475 53.0759 19.2691C52.7913 20.0907 52.4633 20.922 52.0919 21.7627C51.7205 22.6035 51.3925 23.4082 51.108 24.1766C50.8234 24.9451 50.6811 25.6234 50.6811 26.2115C50.6811 26.9275 50.9513 27.5066 51.4917 27.9487C52.0322 28.3907 52.7367 28.6118 53.6055 28.6118H59.5253C60.2202 28.6118 60.8064 28.8502 61.2838 29.327C61.7613 29.8038 62 30.3901 62 31.0858C62 31.9208 61.773 32.5138 61.3189 32.8649C61.0723 33.0658 60.9376 33.2831 60.9149 33.5169C60.8923 33.7507 60.998 33.9632 61.2322 34.1545C61.3928 34.2907 61.5234 34.5123 61.6238 34.8192C61.7243 35.1261 61.7745 35.4554 61.7745 35.8072C61.7745 36.2596 61.6789 36.6755 61.4876 37.0549C61.2964 37.4343 61.047 37.7141 60.7395 37.8943C60.5091 38.0329 60.3565 38.2052 60.2818 38.4113C60.2071 38.6174 60.2654 38.8673 60.4568 39.161C60.6015 39.3491 60.7179 39.5788 60.806 39.8503C60.8941 40.1217 60.9381 40.4272 60.9381 40.7667C60.9381 41.8341 60.3947 42.597 59.3079 43.0553C59.1006 43.1579 58.9603 43.2969 58.8868 43.4723C58.8134 43.6478 58.8546 43.8692 59.0106 44.1368C59.134 44.3229 59.2219 44.5177 59.2744 44.7212C59.3269 44.9247 59.3531 45.14 59.3531 45.3671C59.3531 45.9153 59.1567 46.3884 58.7638 46.7863C58.3709 47.1842 57.8136 47.4682 57.092 47.6383C56.6047 47.7637 55.9703 47.8577 55.1888 47.9204C54.4074 47.9831 53.514 48.0088 52.5089 47.9974L50.2274 47.9632C47.8205 47.9509 45.6979 47.515 43.8597 46.6556C42.0215 45.7962 40.5854 44.6177 39.5512 43.12C38.5171 41.6224 38 39.894 38 37.9349Z" fill="#0037FC"/>
<path d="M31 37.5409C31 35.9124 31.2669 34.4547 31.8007 33.1678C32.3346 31.881 33.0395 30.8646 33.9156 30.1188C34.7917 29.3729 35.7356 29 36.7473 29C37.1537 29 37.5652 29 37.9817 29C38.3983 29 38.8153 29 39.2327 29C38.3088 30.3793 37.6503 31.7332 37.2572 33.0617C36.864 34.3901 36.6675 35.9059 36.6675 37.6089C36.6675 39.383 37.0496 40.9868 37.8139 42.4204C38.5783 43.854 39.6403 45.0472 41 46C40.3907 46 39.7815 46 39.1724 46C38.5632 46 37.9489 46 37.3295 46C36.2169 46 35.1781 45.6269 34.213 44.8807C33.248 44.1345 32.4713 43.121 31.8828 41.8401C31.2943 40.5592 31 39.1261 31 37.5409Z" fill="#0037FC"/>
</svg>

<svg width="92" height="63" fill="none" xmlns="http://www.w3.org/2000/svg"><rect x=".2" y=".2" width="91.6" height="62.6" rx="27.8" fill="#F9FBFF" stroke="#0037FC" stroke-width=".4"/><path d="M38 37.935c0-1.22.104-2.324.312-3.31.208-.987.544-1.942 1.007-2.866.463-.924 1.077-1.894 1.842-2.91a238.05 238.05 0 012.74-3.518 77.675 77.675 0 002.946-3.977 40.917 40.917 0 002.726-4.543c.355-.691.68-1.166.971-1.424A1.554 1.554 0 0151.611 15c.585 0 1.046.181 1.384.543.339.362.508.845.508 1.45 0 .696-.142 1.455-.427 2.276a32.497 32.497 0 01-.984 2.494c-.371.84-.7 1.645-.984 2.414-.285.768-.427 1.446-.427 2.035 0 .715.27 1.295.81 1.737.541.442 1.246.663 2.114.663h5.92c.695 0 1.281.238 1.759.715.477.477.716 1.063.716 1.759 0 .835-.227 1.428-.681 1.779-.247.2-.381.418-.404.652-.023.234.083.446.317.637.16.137.291.358.392.665.1.307.15.636.15.988 0 .453-.095.868-.286 1.248-.192.38-.441.66-.748.84-.23.138-.384.31-.458.516-.075.206-.017.456.175.75.145.188.26.418.349.69.088.27.132.576.132.916 0 1.067-.543 1.83-1.63 2.288-.207.103-.348.242-.421.417-.074.176-.032.397.124.665.123.186.21.38.263.584.053.204.08.419.08.646a1.95 1.95 0 01-.59 1.42c-.393.397-.95.681-1.672.851-.487.126-1.122.22-1.903.282-.782.063-1.675.089-2.68.077l-2.282-.034c-2.406-.012-4.53-.448-6.367-1.307-1.838-.86-3.275-2.038-4.309-3.536C38.517 41.622 38 39.894 38 37.935z" fill="#0037FC"/><path d="M31 37.54c0-1.628.267-3.085.8-4.372.535-1.287 1.24-2.303 2.116-3.05.876-.745 1.82-1.118 2.831-1.118h2.485c-.923 1.38-1.582 2.733-1.975 4.062-.393 1.328-.59 2.844-.59 4.547 0 1.774.383 3.378 1.147 4.811A10.158 10.158 0 0041 46h-3.67c-1.113 0-2.152-.373-3.117-1.12-.965-.745-1.742-1.759-2.33-3.04-.589-1.28-.883-2.714-.883-4.3z" fill="#0037FC"/></svg>
